svg/education/science_fill.svg

<?xml version="1.0" encoding="UTF-8"?>
<svg width="24px" height="24px" viewBox="0 0 24 24" version="1.1" xmlns="http://www.w3.org/2000/svg" xmlns:xlink="http://www.w3.org/1999/xlink">
    <title>science_fill</title>
    <g id="页面-1" stroke="none" stroke-width="1" fill="none" fill-rule="evenodd">
        <g id="science_fill">
             <path d="M24,0 L24,24 L0,24 L0,0 L24,0 Z M12.5934901,23.257841 L12.5819402,23.2595131 L12.5108777,23.2950439 L12.4918791,23.2987469 L12.4918791,23.2987469 L12.4767152,23.2950439 L12.4056548,23.2595131 C12.3958229,23.2563662 12.3870493,23.2590235 12.3821421,23.2649074 L12.3780323,23.275831 L12.360941,23.7031097 L12.3658947,23.7234994 L12.3769048,23.7357139 L12.4804777,23.8096931 L12.4953491,23.8136134 L12.4953491,23.8136134 L12.5071152,23.8096931 L12.6106902,23.7357139 L12.6232938,23.7196733 L12.6232938,23.7196733 L12.6266527,23.7031097 L12.609561,23.275831 C12.6075724,23.2657013 12.6010112,23.2592993 12.5934901,23.257841 L12.5934901,23.257841 Z M12.8583906,23.1452862 L12.8445485,23.1473072 L12.6598443,23.2396597 L12.6498822,23.2499052 L12.6498822,23.2499052 L12.6471943,23.2611114 L12.6650943,23.6906389 L12.6699349,23.7034178 L12.6699349,23.7034178 L12.678386,23.7104931 L12.8793402,23.8032389 C12.8914285,23.8068999 12.9022333,23.8029875 12.9078286,23.7952264 L12.9118235,23.7811639 L12.8776777,23.1665331 C12.8752882,23.1545897 12.8674102,23.1470016 12.8583906,23.1452862 L12.8583906,23.1452862 Z M12.1430473,23.1473072 C12.1332178,23.1423925 12.1221763,23.1452606 12.1156365,23.1525954 L12.1099173,23.1665331 L12.0757714,23.7811639 C12.0751323,23.7926639 12.0828099,23.8018602 12.0926481,23.8045676 L12.108256,23.8032389 L12.3092106,23.7104931 L12.3186497,23.7024347 L12.3186497,23.7024347 L12.3225043,23.6906389 L12.340401,23.2611114 L12.337245,23.2485176 L12.337245,23.2485176 L12.3277531,23.2396597 L12.1430473,23.1473072 Z" id="MingCute" fill-rule="nonzero"></path>
            <path d="M4.222,4.22187 C5.5748,2.86907 7.6117,2.75451 9.65499,3.40006 C10.4109,3.63887 11.1975,3.98829 12.0001,4.44429 C12.8027,3.98824 13.5894,3.63878 14.3454,3.39994 C16.3886,2.75439 18.4255,2.86896 19.7783,4.22176 C21.1311,5.57455 21.2457,7.61145 20.6002,9.65474 C20.3613,10.4107 20.0119,11.1974 19.5558,12 C20.0119,12.8026 20.3613,13.5893 20.6002,14.3452 C21.2457,16.3885 21.1311,18.4254 19.7783,19.7782 C18.4255,21.131 16.3886,21.2456 14.3454,20.6 C13.5894,20.3612 12.8027,20.0117 12.0001,19.5557 C11.1975,20.0117 10.4109,20.3611 9.65499,20.5999 C7.6117,21.2455 5.5748,21.1309 4.222,19.7781 C2.8692,18.4253 2.75464,16.3884 3.40019,14.3451 C3.639,13.5892 3.98843,12.8026 4.44444,12 C3.98843,11.1974 3.639,10.4108 3.40019,9.65486 C2.75464,7.61157 2.8692,5.57467 4.222,4.22187 Z M5.71069,13.9089 C5.54676,14.2676 5.41247,14.6146 5.30727,14.9476 C4.77084,16.6455 5.03639,17.7641 5.63621,18.3639 C6.23604,18.9637 7.35455,19.2293 9.05247,18.6928 C9.38546,18.5876 9.73253,18.4534 10.0912,18.2894 C9.31305,17.6995 8.53093,17.0161 7.75753,16.2427 C6.98409,15.4692 6.30065,14.6871 5.71069,13.9089 Z M18.2896,13.9088 C17.6996,14.687 17.0162,15.4692 16.2428,16.2426 C15.4694,17.016 14.6872,17.6995 13.9089,18.2895 C14.2677,18.4534 14.6148,18.5877 14.9479,18.693 C16.6458,19.2294 17.7643,18.9638 18.3641,18.364 C18.964,17.7642 19.2295,16.6457 18.6931,14.9478 C18.5879,14.6147 18.4536,14.2676 18.2896,13.9088 Z M12,10.5 C11.1716,10.5 10.5,11.1716 10.5,12 C10.5,12.8284 11.1716,13.5 12,13.5 C12.8284,13.5 13.5,12.8284 13.5,12 C13.5,11.1716 12.8284,10.5 12,10.5 Z M14.9479,5.30703 C14.6148,5.41225 14.2677,5.54656 13.9089,5.71052 C14.6872,6.3005 15.4694,6.98395 16.2428,7.75741 C17.0162,8.53082 17.6996,9.31296 18.2896,10.0911 C18.4536,9.7324 18.5879,9.38527 18.6931,9.05223 C19.2295,7.35431 18.964,6.23579 18.3641,5.63597 C17.7643,5.03615 16.6458,4.77059 14.9479,5.30703 Z M5.63621,5.63609 C5.03639,6.23591 4.77084,7.35443 5.30727,9.05234 C5.41247,9.38534 5.54676,9.73242 5.71069,10.0911 C6.30065,9.3129 6.98409,8.53073 7.75753,7.75729 C8.53093,6.98389 9.31305,6.30049 10.0912,5.71055 C9.73253,5.54663 9.38546,5.41235 9.05247,5.30714 C7.35455,4.77071 6.23604,5.03626 5.63621,5.63609 Z" id="形状" fill="#09244B" fill-rule="nonzero"></path>
        </g>
    </g>
</svg>

<svg xmlns="http://www.w3.org/2000/svg" width="24" height="24"><g fill="none" fill-rule="evenodd"><path d="M24 0v24H0V0h24ZM12.593 23.258l-.011.002-.071.035-.02.004-.014-.004-.071-.035c-.01-.004-.019-.001-.024.005l-.004.01-.017.428.005.02.01.013.104.074.015.004.012-.004.104-.074.012-.016.004-.017-.017-.427c-.002-.01-.009-.017-.017-.018Zm.265-.113-.013.002-.185.093-.01.01-.003.011.018.43.005.012.008.007.201.093c.012.004.023 0 .029-.008l.004-.014-.034-.614c-.003-.012-.01-.02-.02-.022Zm-.715.002a.023.023 0 0 0-.027.006l-.006.014-.034.614c0 .012.007.02.017.024l.015-.002.201-.093.01-.008.004-.011.017-.43-.003-.012-.01-.01-.184-.092Z"/><path fill="#09244B" fill-rule="nonzero" d="M4.222 4.222c1.353-1.353 3.39-1.467 5.433-.822A12.26 12.26 0 0 1 12 4.444c.803-.456 1.59-.805 2.345-1.044 2.044-.646 4.08-.531 5.433.822 1.353 1.353 1.468 3.39.822 5.433A12.26 12.26 0 0 1 19.556 12c.456.803.805 1.59 1.044 2.345.646 2.043.531 4.08-.822 5.433-1.352 1.353-3.39 1.468-5.433.822A12.258 12.258 0 0 1 12 19.556c-.803.456-1.59.805-2.345 1.044-2.043.645-4.08.53-5.433-.822-1.353-1.353-1.467-3.39-.822-5.433.239-.756.588-1.542 1.044-2.345A12.258 12.258 0 0 1 3.4 9.655c-.645-2.043-.53-4.08.822-5.433Zm1.489 9.687a9.108 9.108 0 0 0-.404 1.039c-.536 1.697-.27 2.816.33 3.416.599.6 1.718.865 3.415.329.333-.105.68-.24 1.04-.404a22.771 22.771 0 0 1-2.334-2.046 22.782 22.782 0 0 1-2.047-2.334Zm12.579 0a22.78 22.78 0 0 1-2.047 2.334 22.772 22.772 0 0 1-2.334 2.047c.359.163.706.298 1.039.403 1.698.536 2.816.27 3.416-.329.6-.6.866-1.718.33-3.416a9.1 9.1 0 0 0-.404-1.04ZM12 10.5a1.5 1.5 0 1 0 0 3 1.5 1.5 0 0 0 0-3Zm2.948-5.193a9.11 9.11 0 0 0-1.04.404c.78.59 1.561 1.273 2.335 2.046a22.787 22.787 0 0 1 2.047 2.334c.164-.359.298-.706.403-1.039.537-1.698.271-2.816-.329-3.416-.6-.6-1.718-.865-3.416-.329Zm-9.312.33c-.6.599-.865 1.717-.329 3.415.105.333.24.68.404 1.04.59-.78 1.273-1.561 2.047-2.335a22.777 22.777 0 0 1 2.333-2.046 9.11 9.11 0 0 0-1.039-.404c-1.697-.536-2.816-.27-3.416.33Z"/></g></svg>
